ui/StatusQ/src/assets/img/icons/emojiCategories/nature.svg

<svg fill="none" height="20" viewBox="0 0 18 20" width="18" xmlns="http://www.w3.org/2000/svg"><path clip-rule="evenodd" d="m1.67442 16.3332c.0344-.1575-.0061-.3214-.10614-.4477-1.4690565-1.8552-2.57727-5.4835-.12683-8.83713 4.00329-5.47889 14.31155-8.21831 15.96295-6.57463 1.6513 1.64368 0 11.70476-6.6054 15.88866-3.02347 1.9151-5.39747 1.9263-7.10682 1.1708-.32404-.1432-.71851.0368-.75599.3891-.04571.4297-.06937.8721-.06937 1.3278 0 .4142-.33579.75-.75.75-.41422 0-.75-.3358-.75-.75 0-1.0331.10808-2.0036.3076-2.9169zm.97817-8.39988c1.74887-2.39349 5.00511-4.31323 8.15351-5.42945 1.5537-.55083 2.9961-.87494 4.1022-.97255.556-.04906.9775-.03631 1.2631.00942.108.01729.1943.09634.2206.20253.0036.01442.0072.02957.0108.04546.0652.28736.1066.70292.0954 1.24148-.0224 1.07336-.2498 2.47243-.7296 3.98049-.9674 3.0403-2.867 6.2443-5.77221 8.0845-1.89559 1.2007-3.3609 1.4811-4.42936 1.3883-.73092-.0634-1.3528-.3079-1.87042-.6534-.17293-.1154-.23803-.3351-.16869-.5311 1.4994-4.2382 5.33169-7.067 9.22958-9.40577.3552-.21311.4704-.6738.2573-1.02899-.2131-.35518-.6738-.47036-1.029-.25725-3.49739 2.09844-7.29694 4.7809-9.26526 8.75211-.18546.3742-.7118.3995-.85462.0071-.55474-1.5243-.59949-3.53578.78667-5.43288z" fill="#939ba1" fill-rule="evenodd"/></svg>

<svg width="18" height="20" viewBox="0 0 18 20" fill="none" xmlns="http://www.w3.org/2000/svg">
<path fill-rule="evenodd" clip-rule="evenodd" d="M1.67442 16.3332C1.70882 16.1757 1.66832 16.0118 1.56828 15.8855C0.0992235 14.0303 -1.00899 10.402 1.44145 7.04837C5.44474 1.56948 15.753 -1.16994 17.4044 0.47374C19.0557 2.11742 17.4044 12.1785 10.799 16.3624C7.77553 18.2775 5.40153 18.2887 3.69218 17.5332C3.36814 17.39 2.97367 17.57 2.93619 17.9223C2.89048 18.352 2.86682 18.7944 2.86682 19.2501C2.86682 19.6643 2.53103 20.0001 2.11682 20.0001C1.7026 20.0001 1.36682 19.6643 1.36682 19.2501C1.36682 18.217 1.4749 17.2465 1.67442 16.3332ZM2.65259 7.93332C4.40146 5.53983 7.6577 3.62009 10.8061 2.50387C12.3598 1.95304 13.8022 1.62893 14.9083 1.53132C15.4643 1.48226 15.8858 1.49501 16.1714 1.54074C16.2794 1.55803 16.3657 1.63708 16.392 1.74327C16.3956 1.75769 16.3992 1.77284 16.4028 1.78873C16.468 2.07609 16.5094 2.49165 16.4982 3.03021C16.4758 4.10357 16.2484 5.50264 15.7686 7.0107C14.8012 10.051 12.9016 13.255 9.99639 15.0952C8.1008 16.2959 6.63549 16.5763 5.56703 16.4835C4.83611 16.4201 4.21423 16.1756 3.69661 15.8301C3.52368 15.7147 3.45858 15.495 3.52792 15.299C5.02732 11.0608 8.85961 8.232 12.7575 5.89323C13.1127 5.68012 13.2279 5.21943 13.0148 4.86424C12.8017 4.50906 12.341 4.39388 11.9858 4.60699C8.48841 6.70543 4.68886 9.38789 2.72054 13.3591C2.53508 13.7333 2.00874 13.7586 1.86592 13.3662C1.31118 11.8419 1.26643 9.83042 2.65259 7.93332Z" fill="#939BA1"/>
</svg>
